X: 4
T: Missa Preter rerum / Sanctus
N: Derived from Das1002d-Missa_Preter_rerum-Sanctus.krn
C: Ludwig Daser
%%abc-version 2.0
%%abcx-abcm2ps-target-version 5.9.1 (29 Sep 2008)
%%abc-creator hum2abc beta
%%abcx-conversion-date 2019/02/16 20:30:01
%%abc-edited-by Jesse Rodin
%%abc-edited-by Stephanie P. Schlagel 2016/05/23
%%abcx-initial-encoding-date 2016/05/23/
%%humdrum-veritas 533712557
%%humdrum-veritas-data 2382439249
%%linebreak <none>
%%barnumbers 0
L: 1/4
M: 2/1
Q: 1/2=120
V: 1 clef=treble
V: 2 clef=treble-8
V: 3 clef=treble-8
V: 4 clef=treble-8
V: 5 clef=bass
V: 6 clef=bass
K: F
[V:1] G8- | 
[V:2] G6A2 | 
[V:3] z8 | 
[V:4] z8 | 
[V:5] z8 | 
[V:6] z8 | 
[V:1] G8 | 
[V:2] B4c4 | 
[V:3] z8 | 
[V:4] z8 | 
[V:5] z8 | 
[V:6] z8 | 
[V:1] G8- | 
[V:2] B2G2B2c2 | 
[V:3] z8 | 
[V:4] z8 | 
[V:5] z8 | 
[V:6] G,,6A,,2 | 
[V:1] G8 | 
[V:2] d4_e4 | 
[V:3] z8 | 
[V:4] z8 | 
[V:5] z8 | 
[V:6] B,,4C,4 | 
[V:1] z8 | 
[V:2] d6c2 | 
[V:3] G8- | 
[V:4] z8 | 
[V:5] G,,6A,,2 | 
[V:6] B,,2G,,2B,,2C,2 | 
[V:1] z8 | 
[V:2] BAd4c2 | 
[V:3] G8 | 
[V:4] z4z2G2 | 
[V:5] B,,4C,4 | 
[V:6] D,4_E,4 | 
[V:1] z8 | 
[V:2] d4z4 | 
[V:3] G8- | 
[V:4] B3cd2_e2- | 
[V:5] B,,2G,,2B,,2C,2 | 
[V:6] D,4G,,2C,2- | 
[V:1] z8 | 
[V:2] z8 | 
[V:3] G8 | 
[V:4] e2d4c2 | 
[V:5] D,4_E,4 | 
[V:6] C,2B,,2C,4 | 
[V:1] A8 | 
[V:2] f4e2f2- | 
[V:3] z8 | 
[V:4] d4c2d2- | 
[V:5] D,4z4 | 
[V:6] z8 | 
[V:1] F8 | 
[V:2] fed4cB | 
[V:3] z8 | 
[V:4] dcB4AG | 
[V:5] z8 | 
[V:6] z8 | 
[V:1] z8 | 
[V:2] A4z4 | 
[V:3] A8 | 
[V:4] F4z2F2 | 
[V:5] F,4E,2F,2- | 
[V:6] D,4C,2D,2- | 
[V:1] z8 | 
[V:2] z8 | 
[V:3] F8- | 
[V:4] A2B2F2B2- | 
[V:5] F,E,D,4C,B,, | 
[V:6] D,C,B,,4A,,G,, | 
[V:1] z4B4- | 
[V:2] c4d3e | 
[V:3] F8 | 
[V:4] B2A2B3c | 
[V:5] C,4B,,2B,2- | 
[V:6] F,,4B,,4 | 
[V:1] B4B4 | 
[V:2] f2g4fe | 
[V:3] z8 | 
[V:4] d2B2_e2d2- | 
[V:5] B,A,G,F,_E,2B,2- | 
[V:6] z8 | 
[V:1] B4A4- | 
[V:2] f2g2e2f2- | 
[V:3] z8 | 
[V:4] d2B2c2A2 | 
[V:5] B,2G,2A,G,F,E, | 
[V:6] z4z2D,2- | 
[V:1] A8 | 
[V:2] f2ede2f2 | 
[V:3] z8 | 
[V:4] d2c4A2 | 
[V:5] D,2A,4F,2 | 
[V:6] D,2A,,2C,2D,2 | 
[V:1] G8- | 
[V:2] d2e4dc | 
[V:3] z8 | 
[V:4] B2G2c2B2- | 
[V:5] G,F,E,D,C,2G,2- | 
[V:6] B,,2C,4G,,2 | 
[V:1] G4F4- | 
[V:2] d2e2c2d2- | 
[V:3] z8 | 
[V:4] B2G2A2F2 | 
[V:5] G,2E,2F,E,D,C, | 
[V:6] B,,2C,2A,,2B,,2- | 
[V:1] F8 | 
[V:2] d2cBA4 | 
[V:3] z8 | 
[V:4] B4c2d2- | 
[V:5] B,,2F,4E,D, | 
[V:6] B,,2A,,G,,F,,4 | 
[V:1] G8 | 
[V:2] G8 | 
[V:3] z4B4- | 
[V:4] d2c2d4- | 
[V:5] E,4D,4 | 
[V:6] C,4G,,4 | 
[V:1] G4F2B2- | 
[V:2] z4z2g2- | 
[V:3] B4B4 | 
[V:4] d4z4 | 
[V:5] G,,4z4 | 
[V:6] G,3F,D,2_E,2- | 
[V:1] Bcd2c2A2- | 
[V:2] gfd2e2f2- | 
[V:3] B4A4- | 
[V:4] z8 | 
[V:5] z8 | 
[V:6] E,D,B,,2C,2D,2- | 
[V:1] ABc2B2G2- | 
[V:2] fec2d2e2 | 
[V:3] A4G4- | 
[V:4] z4z2c2- | 
[V:5] z8 | 
[V:6] D,C,A,,2B,,2C,2 | 
[V:1] GAB2A2B2- | 
[V:2] d3ef4 | 
[V:3] G4F4- | 
[V:4] c2B2c2d2- | 
[V:5] z8 | 
[V:6] G,,4z2B,,2- | 
[V:1] B2AGF4 | 
[V:2] f6d2 | 
[V:3] F8 | 
[V:4] d2c4B2 | 
[V:5] z8 | 
[V:6] B,,2C,2D,4 | 
[V:1] E2CDEFG2- | 
[V:2] e4z2e2- | 
[V:3] G8- | 
[V:4] c4G2c2- | 
[V:5] z8 | 
[V:6] C,8- | 
[V:1] GCF4E2 | 
[V:2] e2dcc4 | 
[V:3] G8 | 
[V:4] c2BAG4 | 
[V:5] z8 | 
[V:6] C,8 | 
[V:1] F4F4 | 
[V:2] A2d3cA2 | 
[V:3] z8 | 
[V:4] F8 | 
[V:5] z2B,4A,2 | 
[V:6] D,2B,,3C,D,2 | 
[V:1] G8 | 
[V:2] B3cd2e2 | 
[V:3] z8 | 
[V:4] z4z2c2- | 
[V:5] G,4G,4 | 
[V:6] G,,3A,,B,,2C,2 | 
[V:1] A8 | 
[V:2] f3e/d/c2d2 | 
[V:3] z4F4 | 
[V:4] c2c2A2F2 | 
[V:5] F,6E,D, | 
[V:6] F,,8 | 
[V:1] G8 | 
[V:2] e6c2 | 
[V:3] G8 | 
[V:4] c8 | 
[V:5] C,3D,E,4- | 
[V:6] z4C,4- | 
[V:1] z2c3BA2- | 
[V:2] c4e4 | 
[V:3] A8- | 
[V:4] z4c4 | 
[V:5] E,4z4 | 
[V:6] C,2A,,2A,,4 | 
[V:1] AGFEFGAF | 
[V:2] f2d3cA2 | 
[V:3] A8 | 
[V:4] d8- | 
[V:5] z2F,4D,2 | 
[V:6] D,8 | 
[V:1] G8- | 
[V:2] B2GABcdB | 
[V:3] G8- | 
[V:4] d8 | 
[V:5] D,4D,4 | 
[V:6] G,,8 | 
[V:1] G8 | 
[V:2] c8- | 
[V:3] G8 | 
[V:4] =e8- | 
[V:5] C,2C,3D,E,F, | 
[V:6] z4C,4- | 
[V:1] c8 | 
[V:2] c8 | 
[V:3] z8 | 
[V:4] e8 | 
[V:5] G,2A,4A,2 | 
[V:6] C,2A,,2A,,4 | 
[V:1] A4A4 | 
[V:2] z2f4f2 | 
[V:3] F8 | 
[V:4] d8 | 
[V:5] A,G,F,E,D,4- | 
[V:6] D,8 | 
[V:1] B4G4 | 
[V:2] d4e4 | 
[V:3] G8 | 
[V:4] z4c4- | 
[V:5] D,2G,4E,2 | 
[V:6] G,,4C,4- | 
[V:1] z2c3BA2- | 
[V:2] c2e4e2 | 
[V:3] A8- | 
[V:4] c8 | 
[V:5] E,8 | 
[V:6] C,2A,,2A,,4 | 
[V:1] AGFEFGAF | 
[V:2] f2d3cA2 | 
[V:3] A8 | 
[V:4] d8- | 
[V:5] z2F,4D,2 | 
[V:6] D,8 | 
[V:1] G8- | 
[V:2] B2GABcdB | 
[V:3] G8- | 
[V:4] d8 | 
[V:5] D,4z2G,2 | 
[V:6] G,,4G,,4 | 
[V:1] G8 | 
[V:2] c2G2c4 | 
[V:3] G8- | 
[V:4] e8 | 
[V:5] G,3F,E,2C,2 | 
[V:6] C,8 | 
[V:1] G8 ||  
[V:2] B8 ||  
[V:3] G8 ||  
[V:4] d8 ||  
[V:5] D,8 ||  
[V:6] G,,8 ||  
[V:1]  [K:F] [K:clef=treble][M:2/1]z8 | 
[V:2]  [K:F] [K:clef=treble-8][M:2/1]z8 | 
[V:3]  [K:F] [K:clef=treble-8][M:2/1]D4D2G2- | 
[V:4]  [K:F] [K:clef=treble-8][M:2/1]z8 | 
[V:5]  [K:F] [K:clef=bass][M:2/1]z8 | 
[V:6]  [K:F] [K:clef=bass][M:2/1]z8 | 
[V:1] D4D2G2- | 
[V:2] z8 | 
[V:3] G2F2G2B2 | 
[V:4] z8 | 
[V:5] z8 | 
[V:6] z8 | 
[V:1] G2F2G2B2- | 
[V:2] z8 | 
[V:3] A4G3A | 
[V:4] z8 | 
[V:5] z8 | 
[V:6] z8 | 
[V:1] B2AGA2G2- | 
[V:2] z8 | 
[V:3] BGc4B2 | 
[V:4] z8 | 
[V:5] z8 | 
[V:6] z8 | 
[V:1] G2^F2G2B2- | 
[V:2] z8 | 
[V:3] A4G4- | 
[V:4] z8 | 
[V:5] z4G,,4 | 
[V:6] z8 | 
[V:1] BAGFE2D2 | 
[V:2] z8 | 
[V:3] G8 | 
[V:4] z8 | 
[V:5] G,,2C,4B,,2 | 
[V:6] z8 | 
[V:1] E2G4FE | 
[V:2] G4G2c2- | 
[V:3] z2G4A2 | 
[V:4] z8 | 
[V:5] C,2_E,4D,C, | 
[V:6] z8 | 
[V:1] F2D2z2G2- | 
[V:2] c2B2c2_e2- | 
[V:3] F4G4- | 
[V:4] z8 | 
[V:5] D,4C,4- | 
[V:6] z8 | 
[V:1] GAB4AG | 
[V:2] e2d4c2 | 
[V:3] G8 | 
[V:4] z8 | 
[V:5] C,2B,,2_E,4 | 
[V:6] z8 | 
[V:1] F8 | 
[V:2] d8- | 
[V:3] z2A3GA2 | 
[V:4] z8 | 
[V:5] D,8 | 
[V:6] z8 | 
[V:1] z2A3GA2 | 
[V:2] d8- | 
[V:3] D4A3G/A/ | 
[V:4] z8 | 
[V:5] z4z2D,2- | 
[V:6] z8 | 
[V:1] D2A4G2 | 
[V:2] d8 | 
[V:3] B2A2B4 | 
[V:4] z8 | 
[V:5] D,C,D,2G,,4 | 
[V:6] z8 | 
[V:1] A6B2- | 
[V:2] z2d3cd2 | 
[V:3] A4F2G2- | 
[V:4] z8 | 
[V:5] D,4z4 | 
[V:6] z8 | 
[V:1] B2AGF3G | 
[V:2] G4d4 | 
[V:3] G2FED4 | 
[V:4] z8 | 
[V:5] z4z2A,2- | 
[V:6] z8 | 
[V:1] ABA4GF | 
[V:2] e2f4ed | 
[V:3] z8 | 
[V:4] z8 | 
[V:5] A,G,A,2D,4 | 
[V:6] z8 | 
[V:1] E4z2C2 | 
[V:2] c3defe2- | 
[V:3] z2A3GA2 | 
[V:4] z8 | 
[V:5] A,4z4 | 
[V:6] z8 | 
[V:1] F4E4 | 
[V:2] edd4^c2 | 
[V:3] D4A4- | 
[V:4] z8 | 
[V:5] z4A,,4 | 
[V:6] z8 | 
[V:1] D2F4E2- | 
[V:2] d4A2c2 | 
[V:3] A2F2F2G2- | 
[V:4] z8 | 
[V:5] D,6C,2 | 
[V:6] z8 | 
[V:1] EDD4^C2 | 
[V:2] B2G2A4 | 
[V:3] GFD2E4 | 
[V:4] z8 | 
[V:5] G,,2B,,2A,,4 | 
[V:6] z8 | 
[V:1] D8- | 
[V:2] A4z4 | 
[V:3] D2F3GA2 | 
[V:4] z8 | 
[V:5] z2D,3E,F,2 | 
[V:6] z8 | 
[V:1] D8 | 
[V:2] z2d3ef2 | 
[V:3] B2G2A4 | 
[V:4] z8 | 
[V:5] G,2G,,2D,4 | 
[V:6] z8 | 
[V:1] z8 | 
[V:2] g2G2d4- | 
[V:3] G4z2A2- | 
[V:4] z8 | 
[V:5] E,2G,4F,E, | 
[V:6] z8 | 
[V:1] z4z2A2- | 
[V:2] d2e2f2d2 | 
[V:3] ABc2d2D2 | 
[V:4] z8 | 
[V:5] F,2E,2D,4 | 
[V:6] z8 | 
[V:1] ABc2d2D2 | 
[V:2] e4d4- | 
[V:3] A3G/A/B2A2 | 
[V:4] z8 | 
[V:5] z4z2D,2- | 
[V:6] z8 | 
[V:1] A3G/A/B2G2 | 
[V:2] d4z2d2- | 
[V:3] F2A2G2B2 | 
[V:4] z8 | 
[V:5] D,E,F,2G,2G,,2 | 
[V:6] z8 | 
[V:1] F2A2B2c2 | 
[V:2] def2g2G2 | 
[V:3] A4G2c2 | 
[V:4] z8 | 
[V:5] D,4z2C,2 | 
[V:6] z8 | 
[V:1] F2B4A2 | 
[V:2] d4z2f2- | 
[V:3] A2B2c4 | 
[V:4] z8 | 
[V:5] D,2B,,2F,4 | 
[V:6] z8 | 
[V:1] B8 | 
[V:2] fedcB2d2- | 
[V:3] z4B4- | 
[V:4] z8 | 
[V:5] B,,2B,3A,G,F, | 
[V:6] z8 | 
[V:1] z8 | 
[V:2] d2B2c2d2 | 
[V:3] B4A4 | 
[V:4] z8 | 
[V:5] G,4F,2D,2 | 
[V:6] z8 | 
[V:1] z8 | 
[V:2] B2c4B2 | 
[V:3] G4F4 | 
[V:4] z8 | 
[V:5] _E,2C,2D,4 | 
[V:6] z8 | 
[V:1] z4B4- | 
[V:2] c2_e4d2 | 
[V:3] G8- | 
[V:4] z8 | 
[V:5] C,3B,,G,,4 | 
[V:6] z8 | 
[V:1] B4A4 | 
[V:2] BcdBc2d2- | 
[V:3] G4z2F2 | 
[V:4] z8 | 
[V:5] z2G,2F,2D,2 | 
[V:6] z8 | 
[V:1] G4F4 | 
[V:2] d2c2defd | 
[V:3] G4A4 | 
[V:4] z8 | 
[V:5] E,4D,4 | 
[V:6] z8 | 
[V:1] G2B3AG2- | 
[V:2] e2d4c2 | 
[V:3] B4G4 | 
[V:4] z8 | 
[V:5] G,4_E,4 | 
[V:6] z8 | 
[V:1] G2F2G2D2 | 
[V:2] d8- | 
[V:3] A4G2B2- | 
[V:4] z8 | 
[V:5] D,4G,,4- | 
[V:6] z8 | 
[V:1] G6FE | 
[V:2] d8- | 
[V:3] B2AGB4 | 
[V:4] z8 | 
[V:5] G,,4z4 | 
[V:6] z8 | 
[V:1] F8 ||  
[V:2] d8 ||  
[V:3] A8 ||  
[V:4] z8 ||  
[V:5] D,8 ||  
[V:6] z8 ||  
[V:1]  [K:F] [K:clef=treble][M:3/1]z12 | 
[V:2]  [K:F] [K:clef=treble-8][M:3/1]g4g4e4 | 
[V:3]  [K:F] [K:clef=treble-8][M:3/1]G4G4c4 | 
[V:4]  [K:F] [K:clef=treble-8][M:3/1]z12 | 
[V:5]  [K:F] [K:clef=bass][M:3/1]z12 | 
[V:6]  [K:F] [K:clef=bass][M:3/1]z12 | 
[V:1] d4d4B4 | 
[V:2] f8g4 | 
[V:3] B8G4 | 
[V:4] z12 | 
[V:5] z12 | 
[V:6] z12 | 
[V:1] c8d4 | 
[V:2] f4e4d4 | 
[V:3] A8B4 | 
[V:4] z12 | 
[V:5] z12 | 
[V:6] z12 | 
[V:1] c4B4A4 | 
[V:2] g8f4 | 
[V:3] c4d8 | 
[V:4] z12 | 
[V:5] z12 | 
[V:6] z12 | 
[V:1] B8c4 | 
[V:2] g12 | 
[V:3] G4z4G4 | 
[V:4] z12 | 
[V:5] G,4G,4E,4 | 
[V:6] G,,4G,,4C,4 | 
[V:1] F8z4 | 
[V:2] z12 | 
[V:3] B12 | 
[V:4] d4d4B4 | 
[V:5] F,8G,4 | 
[V:6] B,,8G,,4 | 
[V:1] z12 | 
[V:2] z12 | 
[V:3] A6G2F4 | 
[V:4] c8d4 | 
[V:5] F,4E,4D,4 | 
[V:6] A,,8B,,4 | 
[V:1] z4z4A4 | 
[V:2] z12 | 
[V:3] E4D8 | 
[V:4] c4B4A4 | 
[V:5] G,8F,4 | 
[V:6] C,4D,8 | 
[V:1] B8G4 | 
[V:2] g4g4e4 | 
[V:3] G4B4c4 | 
[V:4] z12 | 
[V:5] G,8z4 | 
[V:6] G,,8z4 | 
[V:1] A3Bc2A2B3c | 
[V:2] f8g4 | 
[V:3] F4A4G4 | 
[V:4] z12 | 
[V:5] z4z8 | 
[V:6] z12 | 
[V:1] d8^c4 | 
[V:2] f6ede4 | 
[V:3] B4A8 | 
[V:4] z4z4A4 | 
[V:5] z12 | 
[V:6] z12 | 
[V:1] d8z4 | 
[V:2] d8z4 | 
[V:3] z4z4c4 | 
[V:4] B8G4 | 
[V:5] G,4G,4E,4 | 
[V:6] G,,4B,,4C,4 | 
[V:1] z12 | 
[V:2] z12 | 
[V:3] c4A4d4 | 
[V:4] A3Bc2A2B3c | 
[V:5] F,8G,4 | 
[V:6] F,,4A,,4G,,4 | 
[V:1] z4z4A4 | 
[V:2] z4z4e4 | 
[V:3] D4A8 | 
[V:4] d8c4 | 
[V:5] F,6E,D,E,4 | 
[V:6] B,,4A,,8 | 
[V:1] A8B4 | 
[V:2] f8d4 | 
[V:3] F8G4- | 
[V:4] d4d4B4 | 
[V:5] D,8G,,4 | 
[V:6] D,12 | 
[V:1] G4c4B4 | 
[V:2] e4c4f4- | 
[V:3] G4A4F4 | 
[V:4] c8d4 | 
[V:5] C,4A,,4B,,4 | 
[V:6] z12 | 
[V:1] A8G4 | 
[V:2] f4d6e2 | 
[V:3] z12 | 
[V:4] c4B8 | 
[V:5] F,4G,8 | 
[V:6] z12 | 
[V:1] A6G2F2E2 | 
[V:2] f12 | 
[V:3] c4c4A4 | 
[V:4] A12 | 
[V:5] F,12- | 
[V:6] F,6E,2D,2C,2 | 
[V:1] D4B4A4 | 
[V:2] z4z4c4 | 
[V:3] B8c4 | 
[V:4] z12 | 
[V:5] F,4G,4E,4 | 
[V:6] B,,4G,,4A,,4 | 
[V:1] G8^F4 | 
[V:2] d4c4A4 | 
[V:3] B4A8 | 
[V:4] z4z4A4 | 
[V:5] D,4E,4F,4 | 
[V:6] B,,4C,4D,4 | 
[V:1] G4G4E4 | 
[V:2] d8c4 | 
[V:3] G12 | 
[V:4] B6A2G4 | 
[V:5] D,4B,,4C,4 | 
[V:6] G,,8z4 | 
[V:1] F8G4 | 
[V:2] A4f4e4 | 
[V:3] z12 | 
[V:4] F4D4E4 | 
[V:5] D,8z4 | 
[V:6] z12 | 
[V:1] F4E8 | 
[V:2] d8^c4 | 
[V:3] z12 | 
[V:4] F4G4A4 | 
[V:5] z12 | 
[V:6] z12 | 
[V:1] D12 | 
[V:2] d12- | 
[V:3] F8B4 | 
[V:4] D12 | 
[V:5] z12 | 
[V:6] D,8G,,4 | 
[V:1] z12 | 
[V:2] d12- | 
[V:3] G4A8 | 
[V:4] z4z4F4 | 
[V:5] z4D,8 | 
[V:6] G,6F,2F,4 | 
[V:1] z12 | 
[V:2] d12- | 
[V:3] G4z4F4 | 
[V:4] B4G4A4 | 
[V:5] G,,6G,4F,2 | 
[V:6] G,4z4D,4 | 
[V:1] z4z4d4 | 
[V:2] d12 | 
[V:3] B4G4A4 | 
[V:4] G8z4 | 
[V:5] G,6G,,2D,4 | 
[V:6] G,,6G,4F,2 | 
[V:1] [M:2/1]d3cB2G2 | 
[V:2] [M:2/1]d4z2g2- | 
[V:3] [M:2/1]F4d4- | 
[V:4] [M:2/1]G8 | 
[V:5] [M:2/1]G,,8 | 
[V:6] [M:2/1]G,8 | 
[V:1] A6A2- | 
[V:2] g2f2e2f2 | 
[V:3] d4A3B | 
[V:4] A8- | 
[V:5] z2D,2C,2D,2 | 
[V:6] D,4z2D,2 | 
[V:1] AGF2E4 | 
[V:2] e2d4c2 | 
[V:3] c2F2z2A2 | 
[V:4] A8 | 
[V:5] A,,2D,2z2C,2 | 
[V:6] C,2D,2A,,4 | 
[V:1] z2G3FE2 | 
[V:2] d2e2d2c2 | 
[V:3] B2G2z2c2- | 
[V:4] G8- | 
[V:5] B,,2C,2G,,2C,2 | 
[V:6] z2C,2B,,2C,2 | 
[V:1] D2G2A2D2 | 
[V:2] d4A2f2- | 
[V:3] c2B2c2d2 | 
[V:4] G4F4- | 
[V:5] z2B,,2A,,2B,,2 | 
[V:6] G,,4z2B,,2 | 
[V:1] A2F3GA2 | 
[V:2] fed2c4 | 
[V:3] c2B4A2 | 
[V:4] F8 | 
[V:5] F,,2B,,2C,4 | 
[V:6] A,,2B,,2F,,4 | 
[V:1] D2d4d2 | 
[V:2] B2f4d2 | 
[V:3] B4A2B2 | 
[V:4] F8 | 
[V:5] D,4z4 | 
[V:6] B,,4D,4 | 
[V:1] G3AB2G2 | 
[V:2] e4d2g2- | 
[V:3] c4B2_e2- | 
[V:4] G8- | 
[V:5] G,4G,2_E,2- | 
[V:6] C,4z4 | 
[V:1] B4c4 | 
[V:2] gfd2_e4 | 
[V:3] edd4c2 | 
[V:4] G8- | 
[V:5] E,F,G,2C,4 | 
[V:6] z4G,4 | 
[V:1] B2_e3dd2- | 
[V:2] d2g3fd2 | 
[V:3] d2G3AB2 | 
[V:4] G8- | 
[V:5] z2C,4B,,2 | 
[V:6] G,2_E,3F,G,2 | 
[V:1] d2c2d4 | 
[V:2] _e4d4 | 
[V:3] G2c4B2 | 
[V:4] G8- | 
[V:5] C,4G,,4 | 
[V:6] C,4z2G,2 | 
[V:1] c2G2c4 | 
[V:2] _e8 | 
[V:3] c4G3A | 
[V:4] G8- | 
[V:5] C,2C,3D,E,F, | 
[V:6] G,F,E,D,C,3B,, | 
[V:1] B8 | 
[V:2] d8- | 
[V:3] B6G2 | 
[V:4] G8- | 
[V:5] G,2D,2G,3F, | 
[V:6] G,,8- | 
[V:1] B8 ||  
[V:2] d8 ||  
[V:3] G8 ||  
[V:4] G8 ||  
[V:5] D,8 ||  
[V:6] G,,8 ||  
[V:1]  [K:F] [K:clef=treble][M:2/1]A4A2F2- | 
[V:2]  [K:F] [K:clef=treble-8][M:2/1]z8 | 
[V:3]  [K:F] [K:clef=treble-8][M:2/1]z8 | 
[V:4]  [K:F] [K:clef=treble-8][M:2/1]z8 | 
[V:5]  [K:F] [K:clef=bass][M:2/1]z8 | 
[V:6]  [K:F] [K:clef=bass][M:2/1]z8 | 
[V:1] FGA2D4 | 
[V:2] d4d2B2- | 
[V:3] z8 | 
[V:4] z8 | 
[V:5] z8 | 
[V:6] z8 | 
[V:1] z2F2G2B2 | 
[V:2] Bcd2G4 | 
[V:3] z8 | 
[V:4] z8 | 
[V:5] z8 | 
[V:6] z8 | 
[V:1] A2c3BA2- | 
[V:2] c3de2f2- | 
[V:3] A4A2F2- | 
[V:4] z8 | 
[V:5] z8 | 
[V:6] z8 | 
[V:1] AGE2F4 | 
[V:2] fec2d3c | 
[V:3] FGA2D4 | 
[V:4] z8 | 
[V:5] z4D,4 | 
[V:6] z8 | 
[V:1] F6D2 | 
[V:2] A2B3AF2 | 
[V:3] z2d3cA2 | 
[V:4] z8 | 
[V:5] D,2B,,3C,D,2 | 
[V:6] z8 | 
[V:1] D2G4^F2 | 
[V:2] G2E2D4 | 
[V:3] B2G2A4 | 
[V:4] z8 | 
[V:5] G,,4z4 | 
[V:6] z8 | 
[V:1] G8- | 
[V:2] d4d2B2- | 
[V:3] G8 | 
[V:4] z8 | 
[V:5] z8 | 
[V:6] z8 | 
[V:1] G4z2G2- | 
[V:2] Bcd2G2_e2- | 
[V:3] B8 | 
[V:4] z8 | 
[V:5] G,4G,2_E,2- | 
[V:6] z8 | 
[V:1] GFD2_E4 | 
[V:2] edd4c2 | 
[V:3] B4G4 | 
[V:4] z8 | 
[V:5] E,F,G,2C,4 | 
[V:6] z8 | 
[V:1] D4z2D2 | 
[V:2] d8- | 
[V:3] B6AG | 
[V:4] z8 | 
[V:5] G,4z4 | 
[V:6] z8 | 
[V:1] F3GA2B2- | 
[V:2] d4z4 | 
[V:3] A2B2A2d2- | 
[V:4] z8 | 
[V:5] D,4D,2B,,2- | 
[V:6] z8 | 
[V:1] BAA4G2 | 
[V:2] d4d4 | 
[V:3] dcA2B4 | 
[V:4] z8 | 
[V:5] B,,C,D,2G,,4 | 
[V:6] z8 | 
[V:1] A8- | 
[V:2] c4d2f2- | 
[V:3] A8- | 
[V:4] z8 | 
[V:5] z4D,4 | 
[V:6] z8 | 
[V:1] A4z4 | 
[V:2] f2ede2g2 | 
[V:3] A4z4 | 
[V:4] z8 | 
[V:5] D,4C,4 | 
[V:6] z8 | 
[V:1] z8 | 
[V:2] f3e/d/c2d2 | 
[V:3] z8 | 
[V:4] z8 | 
[V:5] D,2F,4E,D, | 
[V:6] z8 | 
[V:1] z8 | 
[V:2] G2B3Ad2- | 
[V:3] z8 | 
[V:4] z8 | 
[V:5] E,2G,4F,2 | 
[V:6] z8 | 
[V:1] z8 | 
[V:2] d2^c2d4 | 
[V:3] z4A4 | 
[V:4] z8 | 
[V:5] E,4D,4 | 
[V:6] z8 | 
[V:1] z8 | 
[V:2] e2f2d2e2 | 
[V:3] A4G4 | 
[V:4] z8 | 
[V:5] C,2D,2B,,2C,2 | 
[V:6] z8 | 
[V:1] A4A4 | 
[V:2] c3de2f2- | 
[V:3] A3Bc2d2- | 
[V:4] z8 | 
[V:5] A,,2A,4F,2 | 
[V:6] z8 | 
[V:1] G4A4 | 
[V:2] f2e2f4 | 
[V:3] d2B2c4 | 
[V:4] z8 | 
[V:5] G,4F,4 | 
[V:6] z8 | 
[V:1] B4A4- | 
[V:2] z2f4ed | 
[V:3] d6cB | 
[V:4] z8 | 
[V:5] B,,3C,D,E,F,2- | 
[V:6] z8 | 
[V:1] A2F2G4 | 
[V:2] c2d4c2 | 
[V:3] A2B2G3A | 
[V:4] z8 | 
[V:5] F,2D,2_E,4 | 
[V:6] z8 | 
[V:1] F8 | 
[V:2] d8- | 
[V:3] B4z2A2 | 
[V:4] z8 | 
[V:5] z2B,,3C,D,E, | 
[V:6] z8 | 
[V:1] z4z2A2 | 
[V:2] d8- | 
[V:3] A2G2A4 | 
[V:4] z8 | 
[V:5] F,2G,4F,2 | 
[V:6] z8 | 
[V:1] A2G2A4 | 
[V:2] d8- | 
[V:3] B4A2F2 | 
[V:4] z8 | 
[V:5] G,2G,,2D,4 | 
[V:6] z8 | 
[V:1] B4A3G | 
[V:2] d8 | 
[V:3] G4F2D2 | 
[V:4] z8 | 
[V:5] z4z2A,2 | 
[V:6] z8 | 
[V:1] F2G2E2A2 | 
[V:2] z8 | 
[V:3] z2d2d2c2 | 
[V:4] z8 | 
[V:5] A,2G,2A,4 | 
[V:6] z8 | 
[V:1] A2G2A4 | 
[V:2] z8 | 
[V:3] d4e2f2- | 
[V:4] z8 | 
[V:5] B,4A,2F,2 | 
[V:6] z8 | 
[V:1] B4A2F2 | 
[V:2] z4z2A2 | 
[V:3] fde2A2d2- | 
[V:4] z8 | 
[V:5] G,4F,4 | 
[V:6] z8 | 
[V:1] G4F4- | 
[V:2] A2G2A4 | 
[V:3] d2^c2d4- | 
[V:4] z8 | 
[V:5] E,4D,4 | 
[V:6] z8 | 
[V:1] F4z4 | 
[V:2] B4A2F2 | 
[V:3] d4z4 | 
[V:4] z8 | 
[V:5] z2B,,2C,2D,2- | 
[V:6] z8 | 
[V:1] z8 | 
[V:2] G4FGAB | 
[V:3] z8 | 
[V:4] z8 | 
[V:5] D,2C,2D,2F,2- | 
[V:6] z8 | 
[V:1] z8 | 
[V:2] c2d3cB2- | 
[V:3] z8 | 
[V:4] z8 | 
[V:5] F,E,D,C,B,,2D,2 | 
[V:6] z8 | 
[V:1] z4z2d2- | 
[V:2] B2A2B4- | 
[V:3] z4z2f2- | 
[V:4] z8 | 
[V:5] C,4B,,4- | 
[V:6] z8 | 
[V:1] dcB4AG | 
[V:2] B4z4 | 
[V:3] fed4cB | 
[V:4] z8 | 
[V:5] B,,4z4 | 
[V:6] z8 | 
[V:1] F4G4- | 
[V:2] z2d3cB2- | 
[V:3] A2B2G4 | 
[V:4] z8 | 
[V:5] z2B,3A,G,2- | 
[V:6] z8 | 
[V:1] G4F2B2- | 
[V:2] B2AGA2B2 | 
[V:3] d6d2 | 
[V:4] z8 | 
[V:5] G,2F,E,D,2G,2- | 
[V:6] z8 | 
[V:1] BAG4FE | 
[V:2] G4z2f2- | 
[V:3] B8- | 
[V:4] z8 | 
[V:5] G,F,_E,4D,C, | 
[V:6] z8 | 
[V:1] F2B4AG | 
[V:2] fed4cB | 
[V:3] B4z4 | 
[V:4] z8 | 
[V:5] B,,3C,D,4- | 
[V:6] z8 | 
[V:1] F2G4^F2 | 
[V:2] A2d2c2A2 | 
[V:3] z2B2A2A2 | 
[V:4] z8 | 
[V:5] D,2B,,2C,2D,2 | 
[V:6] z8 | 
[V:1] G8- | 
[V:2] B2d3cBA | 
[V:3] G2B3AGF | 
[V:4] z8 | 
[V:5] G,,4z2G,,2 | 
[V:6] z8 | 
[V:1] G8- | 
[V:2] G6A2 | 
[V:3] E2D2E3F | 
[V:4] z8 | 
[V:5] C,2B,,2C,4 | 
[V:6] z8 | 
[V:1] G8 ||  
[V:2] B8 ||  
[V:3] G8 ||  
[V:4] z8 ||  
[V:5] G,,8 ||  
[V:6] z8 ||  



